X:1
T:Service, CMD
T:Service, CMD
T:Lorin Webster (1857-1923)
T:Public Domain Courtesy of the Cyber Hymnal™
C:Lorin Webster (1857-1923)
Z:Public Domain
Z:Courtesy of the Cyber Hymnal™
%%score ( 1 2 ) ( 3 4 )
L:1/8
Q:1/4=113
M:4/4
K:Db
V:1 treble 
V:2 treble 
V:3 bass 
V:4 bass 
V:1
 [FA]2 | [FA]2 [DF]2 [DB]2 [DA]2 | [EA]3 [EG] [EG]2 [DF]2 | [CF]2 [CE]2 D2 [CE]2 | [DF]6 [FA]2 | %5
 [GB]2 [Gd]2 [=Ec]2 [EB]2 | [FB]3 [FA] [FA]2 [FA]2 | [FA]2 [F=G]2 [=EG]2 [EA]2 | F6 [GA]2 | %9
 [Fd]2 [FA]2 [DF]2 D2 | A3 z A [EA]2 [E=A]2 | [DB]2 [DF]2 E2 [EG]2 | F6 [_CF]2 | %13
 [B,F]2 [B,E]2 [DB]2 [DB]2 | [DB]3 [DB] [=DA]2 [EG]2 | [DF]2 D2 [DE]2 [CE]2 | D6 |] %17
V:2
 x2 | x8 | x8 | x4 D2 x2 | x8 | x8 | x8 | x8 | F6 x2 | x6 D2 | C2 D2 x5 | x4 E2 x2 | D4 _C2 x2 | %13
 x8 | x8 | x2 D2 x4 | D6 |] %17
V:3
 [D,D]2 | [D,D]2 [D,A,]2 [D,G,]2 [D,F,]2 | [C,A,]3 [C,A,] [C,A,]2 [D,A,]2 | %3
 [A,,A,]2 [A,,G,]2 [B,,F,]2 [A,,A,]2 | [D,A,]6 [D,D]2 | [G,D]2 [G,B,]2 [=G,B,]2 [C,C]2 | %6
 [F,C]3 [F,C] [F,C]2 [B,,D]2 | [C,C]2 [C,C]2 [C,B,]2 [C,B,]2 | [F,A,]6 [E,C]2 | %9
 [D,D]2 [D,D]2 [D,A,]2 [D,F,]2 | A,3 z A, [C,A,]2 [C,F,]2 | [B,,F,]2 [B,,B,]2 [G,B,]2 [E,B,]2 | %12
 B,4 =A,2 [=D,_A,]2 | [E,G,]2 [E,G,]2 [E,=G,]2 [=E,G,]2 | [F,A,]3 [F,A,] [F,_C]2 [G,B,]2 | %15
 A,2 [A,,F,]2 [A,,G,]2 [A,,G,]2 | [D,F,]6 |] %17
V:4
 x2 | x8 | x8 | x8 | x8 | x8 | x8 | x8 | x8 | x8 | A,,2 B,,2 x5 | x8 | F,6 x2 | x8 | x8 | A,2 x6 | %16
 x6 |] %17

